FINK
CUT[ICH  WILL MIR MAL  DIE WELT BESEHN]
REG[Europa, Mitteleuropa, Deutschland]
KEY[F0370  08  D 4/4]
MEL[-3-4  -5_-3_-1_1-7  -6_.-5-4_
    -4-3  -2_--7_-5_.-4  -4__-3_
    -3-4  -5_-3_-1_1-7  -6_.-5-4#_
    -6_  2_.1-7b_-6_  -6__-5_
    -5_  -6-5-6-71_-5_  2_-5_3_
    1_  -7_-6_4_.2  1-7-6-71_
    -5_  -6-5-6-71_-5_  2_-5_3_
    1_  -7_-6_4_.2  1_-7_1_ //] >>
FCT[Jugend - Lied, Wander - Lied]
